libs/apps/docs/ngx-frontend/assets/images/logo.svg

<svg width="84" height="23" viewBox="0 0 84 23" fill="none" xmlns="http://www.w3.org/2000/svg">
<path d="M6.264 10.704C5.576 10.512 4.928 10.296 4.32 10.056C3.712 9.816 3.176 9.52 2.712 9.168C2.264 8.8 1.904 8.368 1.632 7.872C1.376 7.36 1.248 6.736 1.248 6C1.248 5.184 1.408 4.504 1.728 3.96C2.064 3.4 2.496 2.952 3.024 2.616C3.552 2.28 4.136 2.04 4.776 1.896C5.432 1.752 6.08 1.68 6.72 1.68C7.92 1.68 8.944 1.776 9.792 1.968C10.656 2.16 11.464 2.408 12.216 2.712L11.736 4.776C10.792 4.408 9.92 4.136 9.12 3.96C8.336 3.768 7.488 3.672 6.576 3.672C6.304 3.672 6 3.704 5.664 3.768C5.344 3.816 5.048 3.92 4.776 4.08C4.504 4.224 4.272 4.432 4.08 4.704C3.904 4.96 3.816 5.296 3.816 5.712C3.816 6.08 3.88 6.4 4.008 6.672C4.152 6.928 4.36 7.152 4.632 7.344C4.904 7.536 5.24 7.712 5.64 7.872C6.056 8.032 6.544 8.2 7.104 8.376C8.176 8.712 9.064 9.064 9.768 9.432C10.472 9.8 11.032 10.192 11.448 10.608C11.864 11.024 12.152 11.48 12.312 11.976C12.472 12.456 12.552 12.976 12.552 13.536C12.552 14.464 12.368 15.232 12 15.84C11.632 16.432 11.16 16.912 10.584 17.28C10.008 17.632 9.376 17.88 8.688 18.024C8 18.168 7.336 18.24 6.696 18.24C5.496 18.24 4.44 18.128 3.528 17.904C2.616 17.68 1.776 17.408 1.008 17.088L1.32 15.072C2.28 15.44 3.184 15.728 4.032 15.936C4.896 16.144 5.784 16.248 6.696 16.248C7.8 16.248 8.616 16.04 9.144 15.624C9.688 15.192 9.96 14.592 9.96 13.824C9.96 13.408 9.88 13.048 9.72 12.744C9.576 12.424 9.344 12.144 9.024 11.904C8.72 11.664 8.336 11.448 7.872 11.256C7.408 11.064 6.872 10.88 6.264 10.704ZM17.4823 18H15.0583V1.92H17.4823V18ZM22.8729 5.784V18H20.4489V1.92H23.4009L31.3689 14.256V1.92H33.7929V18H30.8409L22.8729 5.784ZM48.8574 6.216C48.8574 6.904 48.6894 7.56 48.3534 8.184C48.0334 8.808 47.5134 9.304 46.7934 9.672C47.7054 10.024 48.3614 10.56 48.7614 11.28C49.1774 11.984 49.3854 12.736 49.3854 13.536C49.3854 14.144 49.2814 14.72 49.0734 15.264C48.8654 15.808 48.5454 16.288 48.1134 16.704C47.6974 17.104 47.1694 17.424 46.5294 17.664C45.8894 17.888 45.1454 18 44.2974 18H36.7614V1.92H43.7694C44.6174 1.92 45.3614 2.032 46.0014 2.256C46.6414 2.464 47.1694 2.76 47.5854 3.144C48.0174 3.528 48.3374 3.984 48.5454 4.512C48.7534 5.04 48.8574 5.608 48.8574 6.216ZM39.1854 10.824V15.96H43.8174C44.2654 15.96 44.6734 15.92 45.0414 15.84C45.4254 15.744 45.7534 15.592 46.0254 15.384C46.3134 15.176 46.5374 14.912 46.6974 14.592C46.8574 14.256 46.9374 13.856 46.9374 13.392C46.9374 12.912 46.8574 12.512 46.6974 12.192C46.5374 11.872 46.3214 11.608 46.0494 11.4C45.7774 11.192 45.4494 11.048 45.0654 10.968C44.6974 10.872 44.2894 10.824 43.8414 10.824H39.1854ZM43.2894 8.784C43.7374 8.784 44.1454 8.752 44.5134 8.688C44.8974 8.608 45.2254 8.48 45.4974 8.304C45.7854 8.112 46.0094 7.864 46.1694 7.56C46.3294 7.24 46.4094 6.84 46.4094 6.36C46.4094 5.896 46.3294 5.512 46.1694 5.208C46.0094 4.888 45.7854 4.64 45.4974 4.464C45.2254 4.272 44.8974 4.144 44.5134 4.08C44.1454 4 43.7374 3.96 43.2894 3.96H39.1854V8.784H43.2894ZM54.3026 18H51.8786V1.92H54.3026V18Z" fill="white"/>
<path d="M68.5189 16.4719C67.3155 16.731 66.3022 16.9015 65.5677 17.013C63.8133 17.2786 63.01 17.2983 62.1443 17.154C61.3802 17.0294 60.4489 16.8621 60.1768 16.2194C60.0095 15.803 60.1768 15.3373 60.3637 14.8717C60.5694 14.3471 60.8744 13.8672 61.2622 13.4584C61.9417 12.7031 62.688 12.0105 63.492 11.3892C64.0757 10.9564 64.6659 10.5236 65.3873 10.0317L65.7152 9.80542C65.7152 9.80542 66.312 9.40537 66.9318 9.02171C68.0762 8.31341 70.0765 7.25425 70.7618 6.89354C71.8177 6.33609 72.3588 6.0508 72.9621 5.76224C74.3722 5.10641 75.2772 4.7457 75.51 4.65717C76.1661 4.37939 76.8453 4.15993 77.5398 4.00134C78.5236 3.81443 79.6286 3.61112 80.7206 4.16858C80.8518 4.23744 82.1765 4.9359 82.4684 6.28034C82.5388 6.68722 82.5388 7.10315 82.4684 7.51002C82.3905 8.16957 82.2182 8.8145 81.9568 9.42504C81.7469 9.9765 81.4936 10.5105 81.1994 11.022C81.6024 10.5202 81.9684 9.98973 82.2946 9.43488C82.8389 8.55935 83.1504 8.01173 83.3177 7.24769C83.3931 6.91978 83.7768 5.30972 82.875 3.9128C82.5672 3.4503 82.1663 3.05716 81.6978 2.75854C81.2209 2.46826 80.6936 2.27026 80.1435 2.17486C79.3783 2.00739 78.5918 1.95982 77.812 2.03385C76.2249 2.16502 75.0575 2.65689 73.7721 3.21107C73.1556 3.47668 73.3425 3.43077 70.8635 4.62438C69.6699 5.19823 69.8109 5.12936 69.1551 5.43432C67.9877 6.00817 66.8892 6.54267 65.5841 7.31327C64.6626 7.85761 64.056 8.27078 63.6002 8.5987C63.2198 8.87087 62.9444 9.09385 62.764 9.22829C61.8065 9.97594 61.1244 10.6154 60.8457 10.8679C60.2963 11.3386 59.7913 11.8589 59.3373 12.4222C58.8651 12.9454 58.4997 13.5558 58.2618 14.2191C58.1109 14.6913 57.8092 15.6456 58.1929 16.4555C58.9143 17.977 61.5934 17.9934 62.5017 17.9967C63.4084 17.9851 64.3098 17.8573 65.184 17.6163C66.3313 17.3478 67.4485 16.9644 68.5189 16.4719Z" fill="white"/>
<path d="M72.949 16.4719C74.1524 16.731 75.1657 16.9015 75.9002 17.013C77.6546 17.2786 78.4612 17.2983 79.3269 17.154C80.0877 17.0294 81.0222 16.8621 81.2944 16.2194C81.4649 15.803 81.2944 15.3373 81.1075 14.8717C80.9018 14.3471 80.5967 13.8672 80.209 13.4584C79.5294 12.7031 78.7831 12.0105 77.9792 11.3892C77.3955 10.9564 76.8053 10.5236 76.0871 10.0317L75.7592 9.80542C75.7592 9.80542 75.1657 9.40537 74.5427 9.02171C73.3818 8.31341 71.3816 7.24769 70.6962 6.89354C69.6403 6.33609 69.0993 6.0508 68.4959 5.76224C67.0859 5.10641 66.1808 4.7457 65.9513 4.65717C65.2944 4.37876 64.614 4.15928 63.9182 4.00134C62.9181 3.81443 61.8327 3.61112 60.7375 4.16858C60.6063 4.24072 59.2815 4.95229 58.9897 6.28362C58.9206 6.69061 58.9206 7.10632 58.9897 7.5133C59.0691 8.17255 59.2413 8.81727 59.5012 9.42832C59.7126 9.97918 59.9658 10.5131 60.2587 11.0253C59.8557 10.5234 59.4897 9.99301 59.1635 9.43816C58.6323 8.55935 58.3339 8.01173 58.1502 7.24769C58.0748 6.91978 57.678 5.30972 58.5929 3.9128C58.9007 3.4503 59.3017 3.05716 59.7701 2.75854C60.2471 2.46826 60.7743 2.27026 61.3244 2.17486C62.0896 2.00739 62.8761 1.95982 63.6559 2.03385C65.2463 2.16502 66.4202 2.65689 67.6958 3.21107C68.3123 3.47668 68.1254 3.43077 70.6044 4.62438C71.798 5.19823 71.6734 5.12936 72.303 5.43432C73.4737 6.00817 74.5722 6.54267 75.874 7.31327C76.7954 7.85761 77.4021 8.27078 77.8415 8.5987C78.2219 8.87087 78.4973 9.09385 78.6809 9.22829C79.6352 9.97594 80.3205 10.6154 80.596 10.8679C81.1465 11.3385 81.6525 11.8588 82.1076 12.4222C82.5816 12.9465 82.9491 13.5579 83.1898 14.2224C83.3406 14.6946 83.6456 15.6489 83.2586 16.4588C82.5372 17.9803 79.8581 17.9967 78.9531 18C78.0464 17.9888 77.1448 17.861 76.2708 17.6196C75.128 17.3489 74.0152 16.9644 72.949 16.4719V16.4719Z" fill="white"/>
<path d="M76.5425 11.2012C77.7247 11.2012 78.6831 10.2428 78.6831 9.06054C78.6831 7.87831 77.7247 6.91992 76.5425 6.91992C75.3602 6.91992 74.4019 7.87831 74.4019 9.06054C74.4019 10.2428 75.3602 11.2012 76.5425 11.2012Z" fill="white"/>
</svg>

<svg xmlns="http://www.w3.org/2000/svg" width="84" height="20" fill="none" viewBox="0 0 84 20">
    <path fill="#fff" d="M6.264 10.704c-.688-.192-1.336-.408-1.944-.648-.608-.24-1.144-.536-1.608-.888-.448-.368-.808-.8-1.08-1.296C1.376 7.36 1.248 6.736 1.248 6c0-.816.16-1.496.48-2.04.336-.56.768-1.008 1.296-1.344.528-.336 1.112-.576 1.752-.72.656-.144 1.304-.216 1.944-.216 1.2 0 2.224.096 3.072.288.864.192 1.672.44 2.424.744l-.48 2.064c-.944-.368-1.816-.64-2.616-.816-.784-.192-1.632-.288-2.544-.288-.272 0-.576.032-.912.096-.32.048-.616.152-.888.312-.272.144-.504.352-.696.624-.176.256-.264.592-.264 1.008 0 .368.064.688.192.96.144.256.352.48.624.672.272.192.608.368 1.008.528.416.16.904.328 1.464.504 1.072.336 1.96.688 2.664 1.056.704.368 1.264.76 1.68 1.176.416.416.704.872.864 1.368.16.48.24 1 .24 1.56 0 .928-.184 1.696-.552 2.304-.368.592-.84 1.072-1.416 1.44-.576.352-1.208.6-1.896.744-.688.144-1.352.216-1.992.216-1.2 0-2.256-.112-3.168-.336-.912-.224-1.752-.496-2.52-.816l.312-2.016c.96.368 1.864.656 2.712.864.864.208 1.752.312 2.664.312 1.104 0 1.92-.208 2.448-.624.544-.432.816-1.032.816-1.8 0-.416-.08-.776-.24-1.08-.144-.32-.376-.6-.696-.84-.304-.24-.688-.456-1.152-.648-.464-.192-1-.376-1.608-.552zM17.482 18h-2.424V1.92h2.424V18zm5.39-12.216V18H20.45V1.92H23.4l7.968 12.336V1.92h2.424V18H30.84L22.873 5.784zm25.985.432c0 .688-.168 1.344-.504 1.968-.32.624-.84 1.12-1.56 1.488.912.352 1.568.888 1.968 1.608.416.704.624 1.456.624 2.256 0 .608-.104 1.184-.312 1.728-.208.544-.528 1.024-.96 1.44-.416.4-.944.72-1.584.96-.64.224-1.384.336-2.232.336h-7.536V1.92h7.008c.848 0 1.592.112 2.232.336.64.208 1.168.504 1.584.888.432.384.752.84.96 1.368.208.528.312 1.096.312 1.704zm-9.672 4.608v5.136h4.632c.448 0 .856-.04 1.224-.12.384-.096.712-.248.984-.456.288-.208.512-.472.672-.792.16-.336.24-.736.24-1.2 0-.48-.08-.88-.24-1.2-.16-.32-.376-.584-.648-.792-.272-.208-.6-.352-.984-.432-.368-.096-.776-.144-1.224-.144h-4.656zm4.104-2.04c.448 0 .856-.032 1.224-.096.384-.08.712-.208.984-.384.288-.192.512-.44.672-.744.16-.32.24-.72.24-1.2 0-.464-.08-.848-.24-1.152-.16-.32-.384-.568-.672-.744-.272-.192-.6-.32-.984-.384-.368-.08-.776-.12-1.224-.12h-4.104v4.824h4.104zM54.303 18h-2.424V1.92h2.424V18zM68.519 16.472c-1.204.259-2.217.43-2.951.541-1.755.266-2.558.285-3.424.141-.764-.125-1.695-.292-1.967-.935-.168-.416 0-.882.187-1.347.205-.525.51-1.005.898-1.414.68-.755 1.426-1.447 2.23-2.069.584-.433 1.174-.865 1.895-1.357l.328-.227s.597-.4 1.217-.783c1.144-.709 3.144-1.768 3.83-2.128 1.056-.558 1.597-.843 2.2-1.132 1.41-.656 2.315-1.016 2.548-1.105.656-.278 1.335-.497 2.03-.656.983-.187 2.088-.39 3.18.168.132.068 1.456.767 1.748 2.111.07.407.07.823 0 1.23-.078.66-.25 1.305-.511 1.915-.21.551-.464 1.085-.758 1.597.403-.502.77-1.032 1.096-1.587.544-.876.855-1.423 1.023-2.187.075-.328.459-1.938-.443-3.335-.308-.463-.709-.856-1.177-1.154-.477-.29-1.004-.489-1.555-.584-.765-.168-1.551-.215-2.331-.141-1.587.131-2.755.623-4.04 1.177-.617.266-.43.22-2.909 1.413-1.193.574-1.052.505-1.708.81-1.167.574-2.266 1.109-3.571 1.88-.922.544-1.528.957-1.984 1.285-.38.272-.656.495-.836.63-.958.747-1.64 1.386-1.918 1.639-.55.47-1.055.99-1.509 1.554-.472.523-.837 1.134-1.075 1.797-.151.472-.453 1.427-.07 2.237.722 1.521 3.401 1.537 4.31 1.54.906-.01 1.808-.139 2.682-.38 1.147-.268 2.264-.652 3.335-1.144z"/>
    <path fill="#fff" d="M72.949 16.472c1.203.259 2.217.43 2.951.541 1.755.266 2.561.285 3.427.141.76-.125 1.695-.292 1.967-.935.17-.416 0-.882-.186-1.347-.206-.525-.511-1.005-.899-1.414-.68-.755-1.426-1.447-2.23-2.069-.584-.433-1.174-.865-1.892-1.357l-.328-.227s-.593-.4-1.216-.783c-1.161-.709-3.161-1.774-3.847-2.128-1.056-.558-1.597-.843-2.2-1.132-1.41-.656-2.315-1.016-2.545-1.105-.657-.278-1.337-.498-2.033-.656-1-.187-2.085-.39-3.18.168-.132.072-1.456.783-1.748 2.115-.07.407-.07.822 0 1.23.08.659.251 1.303.511 1.914.212.551.465 1.085.758 1.597-.403-.502-.77-1.032-1.096-1.587-.53-.879-.83-1.426-1.013-2.19-.075-.328-.472-1.938.443-3.335.308-.463.709-.856 1.177-1.154.477-.29 1.004-.489 1.554-.584.766-.168 1.552-.215 2.332-.141 1.59.131 2.764.623 4.04 1.177.616.266.43.22 2.908 1.413 1.194.574 1.07.505 1.699.81 1.17.574 2.27 1.109 3.571 1.88.921.544 1.528.957 1.968 1.285.38.272.655.495.839.63.954.747 1.64 1.386 1.915 1.639.55.47 1.056.99 1.512 1.554.474.524.841 1.136 1.082 1.8.15.473.456 1.427.069 2.237-.722 1.521-3.4 1.538-4.306 1.541-.907-.011-1.808-.139-2.682-.38-1.143-.271-2.256-.656-3.322-1.148z"/>
    <path fill="#fff" d="M76.543 11.201c1.182 0 2.14-.958 2.14-2.14 0-1.183-.958-2.141-2.14-2.141-1.183 0-2.141.958-2.141 2.14 0 1.183.958 2.141 2.14 2.141z"/>
</svg>
